icons/.icons/Papirus/22x22/panel/zim-panel.svg

<svg xmlns="http://www.w3.org/2000/svg" width="22" height="22" version="1.1">
 <defs>
  <style id="current-color-scheme" type="text/css">
   .ColorScheme-Text { color:#dfdfdf; } .ColorScheme-Highlight { color:#4285f4; }
  </style>
 </defs>
 <path style="fill:currentColor;opacity:0.3" class="ColorScheme-Text" d="m 11.000964,3 c -4.4319998,0 -7.9999998,3.568 -7.9999998,8 0,0.836914 0.1289835,1.643302 0.3652344,2.400391 0.00427,-0.01736 0.00533,-0.03544 0.00977,-0.05274 0.1448857,-0.564818 0.4243066,-1.150295 0.9238277,-1.613276 0.5874148,-0.544263 1.2707705,-0.691504 1.9785157,-0.703125 0.1171279,-0.247514 0.2110563,-0.510942 0.4453124,-0.683594 0.097936,-0.07218 0.2055054,-0.0427 0.3105469,-0.08984 0.012974,-0.02719 0.00592,-0.02517 0.021484,-0.05469 C 7.3391029,9.6656014 7.7093307,9.2599061 8.2275267,8.6757812 8.9345356,7.8787995 10.03244,7.1397273 11.049792,6.4785156 12.067624,5.8168902 12.858159,5.3522199 13.182605,5.1855469 13.078498,5.2394355 13.495991,5.0065837 13.897448,4.78125 14.23125,4.5938912 14.665258,4.3608521 15.09862,4.1328125 13.900363,3.418523 12.502909,3 11.000964,3 Z m 7.365234,4.8652343 C 18.073953,8.259055 17.777009,8.6506334 17.54198,8.9511719 17.266299,9.3036239 17.006227,9.6353817 17.040026,9.5898437 l 0,0.00195 c -0.214357,0.2877997 -0.799545,0.9875263 -1.615234,1.8769563 -0.814177,0.887781 -1.721787,1.846335 -2.626953,2.414062 -0.596127,0.373793 -1.04655,0.493196 -1.52539,0.675782 -0.07585,0.423682 -0.263229,0.823827 -0.634766,1.097656 -0.229581,0.169202 -0.508727,0.153432 -0.7753907,0.195312 -0.1252084,0.453679 -0.3431688,0.907406 -0.7363281,1.308594 l -0.019531,0.01953 -0.019531,0.01953 c -0.5422767,0.496323 -1.2053449,0.719805 -1.8222656,0.791015 l -0.054687,0.0059 -0.056641,0 c -0.015928,6.8e-5 -0.025276,-4.8e-5 -0.041016,0 C 8.2623985,18.634361 9.5873018,19 11.000964,19 c 4.432,0 8,-3.568 8,-8 0,-1.114223 -0.226708,-2.1727251 -0.634766,-3.1347657 z"/>
 <path style="fill:currentColor;fill-rule:evenodd" class="ColorScheme-Text" d="m 18.174792,4.0078125 c -0.308799,-0.034509 -0.602617,0.082641 -0.884766,0.1816406 l 0,0.00391 c -0.441647,0.1726001 -0.96777,0.4269594 -1.484374,0.6933594 -0.516607,0.2664 -1.022629,0.543725 -1.417969,0.765625 -0.39534,0.2219 -0.691808,0.393775 -0.746094,0.421875 -0.175275,0.09 -1.05385,0.5966875 -2.046875,1.2421875 C 10.60169,7.9618062 9.519637,8.7265437 8.9755736,9.3398437 8.7062403,9.6434436 8.4956499,9.8833719 8.3232298,10.101563 c 0.3379001,0.109938 0.6464834,0.317035 0.8691406,0.61914 L 11.01073,13.1875 c 0.100623,0.136527 0.171308,0.286022 0.226562,0.439453 0.289536,-0.145687 0.603961,-0.325096 1.029297,-0.591797 0.699448,-0.4387 1.627031,-1.375487 2.421875,-2.242187 0.794844,-0.8667003 1.431891,-1.6418284 1.548828,-1.7988284 0.03934,-0.053 0.245458,-0.3103031 0.517578,-0.6582031 0.27212,-0.348 0.615435,-0.7953063 0.951172,-1.2539063 0.335737,-0.4587 0.663028,-0.9290781 0.904297,-1.3300781 0.120634,-0.2006 0.220337,-0.3831687 0.289063,-0.5429688 0.06873,-0.1596998 0.116849,-0.2900937 0.09766,-0.4335937 -0.03191,-0.2386 -0.152077,-0.3787719 -0.222656,-0.4511719 -0.0016,-0.0014 -0.0095,-0.011719 -0.0098,-0.011719 C 18.680516,4.2112997 18.58679,4.1475091 18.489215,4.099609 18.38288,4.048259 18.277695,4.019315 18.174762,4.007812 Z M 7.8857298,11.009766 c -0.193598,-0.02931 -0.3975555,0.01669 -0.5683594,0.142578 -0.3416077,0.251771 -0.4138809,0.728705 -0.1621093,1.070312 l 1.8164062,2.466797 c 0.2517716,0.341608 0.7306579,0.413881 1.0722657,0.162109 0.341608,-0.251771 0.413881,-0.728704 0.162109,-1.070312 L 8.387683,11.314453 C 8.2617972,11.143649 8.0793279,11.039076 7.8857298,11.009766 Z m -1.8476562,1.023437 c -0.4159261,0.06177 -0.8229304,0.217195 -1.0585938,0.435547 -0.3232455,0.2996 -0.5264133,0.704553 -0.6347656,1.126953 -0.1779677,0.6935 -0.189919,1.690434 -0.3261719,2.427734 -0.067677,0.366 -0.376852,0.935629 -0.953125,1.673828 -0.1471888,0.247301 0,0.279297 0,0.279297 0.082616,0.058 0.2331947,-2.03e-4 0.3085938,-0.0332 1.3334972,-1.096603 2.2144041,-0.940568 3.7753906,-0.947268 0.4591565,-0.053 0.9132923,-0.216257 1.2617187,-0.535157 C 8.6375041,16.22993 8.7624707,16.027321 8.8525267,15.826172 8.5883734,15.706577 8.3481665,15.52904 8.1669798,15.283203 L 6.3486204,12.816406 C 6.1743619,12.579969 6.0779206,12.309407 6.0380736,12.033203 Z"/>
</svg>

<svg xmlns="http://www.w3.org/2000/svg" width="22" height="22" version="1.1">
 <defs>
  <style id="current-color-scheme" type="text/css">
   .ColorScheme-Text { color:#dfdfdf; } .ColorScheme-Highlight { color:#4285f4; } .ColorScheme-NeutralText { color:#ff9800; } .ColorScheme-PositiveText { color:#4caf50; } .ColorScheme-NegativeText { color:#f44336; }
  </style>
 </defs>
 <path style="opacity:0.3;fill:currentColor" class="ColorScheme-Text" d="M 11.001,3 C 6.569,3 3.001,6.568 3.001,11 3.001,11.837 3.1299,12.643 3.3662,13.4 L 3.376,13.348 C 3.5209,12.783 3.8003,12.197 4.2998,11.734 4.8872,11.19 5.5706,11.043 6.2783,11.031 6.3954,10.784 6.4894,10.52 6.7236,10.348 6.8216,10.275 6.9291,10.305 7.0342,10.258 L 7.0557,10.203 C 7.3391,9.666 7.7093,9.26 8.2275,8.6758 8.9345,7.8788 10.032,7.1397 11.05,6.4785 12.068,5.8169 15.099,4.1328 15.099,4.1328 13.9,3.4185 12.503,3 11.001,3 Z M 18.366,7.8652 C 18.366,7.8652 16.24,10.579 15.425,11.469 14.611,12.357 13.703,13.315 12.798,13.883 12.202,14.257 11.751,14.376 11.272,14.559 11.197,14.982 11.009,15.382 10.638,15.656 10.408,15.826 10.129,15.81 9.862,15.852 9.737,16.305 9.519,16.759 9.126,17.16 L 9.106,17.18 9.087,17.199 C 8.5446,17.696 7.8816,17.919 7.2646,17.99 L 7.1123,17.996 C 8.2624,18.634 9.587,19 11.001,19 15.433,19 19.001,15.432 19.001,11 19.001,9.886 18.774,8.8273 18.366,7.8652 Z"/>
 <path style="fill:currentColor" class="ColorScheme-Text" d="M 18.175,4.0078 C 17.866,3.9733 17.572,4.0905 17.29,4.1895 17.29,4.1895 16.322,4.6203 15.806,4.8867 15.289,5.1531 14.783,5.4304 14.388,5.6523 13.992,5.8742 12.588,6.6709 11.595,7.3164 10.602,7.9618 9.52,8.7265 8.9756,9.34 8.7062,9.643 8.4956,9.883 8.3232,10.102 8.6611,10.212 8.9697,10.419 9.192,10.721 L 11.011,13.188 C 11.111,13.324 11.182,13.474 11.237,13.627 11.527,13.481 11.841,13.302 12.267,13.035 12.966,12.596 13.894,11.66 14.688,10.793 15.483,9.926 16.483,8.6838 16.755,8.3359 17.027,7.9879 17.37,7.5406 17.706,7.082 18.042,6.6233 18.369,6.153 18.61,5.752 18.731,5.5514 18.831,5.3688 18.899,5.209 18.968,5.0493 19.016,4.9189 18.997,4.7754 18.965,4.5368 18.845,4.3966 18.774,4.3242 L 18.765,4.3125 C 18.681,4.2113 18.587,4.1475 18.489,4.0996 18.383,4.0483 18.278,4.0193 18.175,4.0078 Z M 7.8857,11.01 C 7.6921,10.98 7.4882,11.026 7.3174,11.152 6.9758,11.404 6.9035,11.881 7.1553,12.223 L 8.9717,14.689 C 9.223,15.031 9.702,15.103 10.044,14.852 10.386,14.6 10.458,14.123 10.206,13.781 L 8.3877,11.314 C 8.2618,11.144 8.0793,11.039 7.8857,11.01 Z M 6.0381,12.033 C 5.6221,12.095 5.2151,12.25 4.9795,12.469 4.6562,12.768 4.4531,13.173 4.3447,13.596 4.1667,14.289 4.1548,15.286 4.0185,16.023 3.9509,16.389 3.6417,16.959 3.0654,17.697 2.9182,17.945 3.0654,17.977 3.0654,17.977 3.148,18.035 3.2986,17.976 3.374,17.943 4.7075,16.847 5.5884,17.003 7.1494,16.996 7.6086,16.943 8.0627,16.78 8.4111,16.461 8.6375,16.23 8.7625,16.027 8.8525,15.826 8.5884,15.707 8.3482,15.529 8.167,15.283 L 6.3486,12.816 C 6.1744,12.58 6.0779,12.309 6.0381,12.033 Z"/>
</svg>
